svg/fluentui-system-icons/ic_fluent_key_20_regular.svg

<svg width="20" height="20" viewBox="0 0 20 20" fill="none" xmlns="http://www.w3.org/2000/svg">
<path d="M15 6C15 6.55228 14.5523 7 14 7C13.4477 7 13 6.55228 13 6C13 5.44772 13.4477 5 14 5C14.5523 5 15 5.44772 15 6ZM12.5 2C9.42386 2 7 4.42386 7 7.5C7 7.89668 7.04001 8.29598 7.12154 8.67456C7.17968 8.94454 7.11378 9.17912 6.98018 9.31271L2.43934 13.8536C2.15804 14.1349 2 14.5164 2 14.9142V16.5C2 17.3284 2.67157 18 3.5 18H5.5C6.32843 18 7 17.3284 7 16.5V16H8C8.55228 16 9 15.5523 9 15V14H10C10.5523 14 11 13.5523 11 13V12.8199C11.4935 12.9536 12.0069 13 12.5 13C15.5761 13 18 10.5761 18 7.5C18 4.42386 15.5761 2 12.5 2ZM8 7.5C8 4.97614 9.97614 3 12.5 3C15.0239 3 17 4.97614 17 7.5C17 10.0239 15.0239 12 12.5 12C11.8408 12 11.2274 11.9047 10.7236 11.6528C10.5686 11.5753 10.3845 11.5836 10.2371 11.6747C10.0897 11.7658 10 11.9267 10 12.1V13H9C8.44772 13 8 13.4477 8 14V15H7C6.44772 15 6 15.4477 6 16V16.5C6 16.7761 5.77614 17 5.5 17H3.5C3.22386 17 3 16.7761 3 16.5V14.9142C3 14.7816 3.05268 14.6544 3.14645 14.5607L7.68729 10.0198C8.11942 9.58768 8.20942 8.97619 8.09913 8.46404C8.03354 8.15949 8 7.83105 8 7.5Z" fill="#212121"/>
</svg>

<svg xmlns="http://www.w3.org/2000/svg" width="20" height="20"><path d="M15 6a1 1 0 1 1-2 0 1 1 0 0 1 2 0Zm-2.5-4C9.424 2 7 4.424 7 7.5c0 .397.04.796.122 1.175.058.27-.008.504-.142.638l-4.54 4.54A1.5 1.5 0 0 0 2 14.915V16.5A1.5 1.5 0 0 0 3.5 18h2A1.5 1.5 0 0 0 7 16.5V16h1a1 1 0 0 0 1-1v-1h1a1 1 0 0 0 1-1v-.18c.493.134 1.007.18 1.5.18 3.076 0 5.5-2.424 5.5-5.5S15.576 2 12.5 2ZM8 7.5C8 4.976 9.976 3 12.5 3S17 4.976 17 7.5 15.024 12 12.5 12c-.66 0-1.273-.095-1.776-.347A.5.5 0 0 0 10 12.1v.9H9a1 1 0 0 0-1 1v1H7a1 1 0 0 0-1 1v.5a.5.5 0 0 1-.5.5h-2a.5.5 0 0 1-.5-.5v-1.586a.5.5 0 0 1 .146-.353l4.541-4.541c.432-.432.522-1.044.412-1.556A4.619 4.619 0 0 1 8 7.5Z"/></svg>
